frontend/public/svg/passport.svg

<svg xmlns="http://www.w3.org/2000/svg" width="900" height="700" viewBox="0 0 900 700"><defs><style>.ink,.thin{fill:none;stroke:#000;stroke-width:14;stroke-linecap:round;stroke-linejoin:round}.thin{stroke-width:8}</style></defs><path d="M560 140q25-25 55-20l145 30q40 10 35 50l-35 360q-5 45-50 35l-110-25q-40-10-35-50l35-345q2-20-40-35" class="ink"/><path d="m640 160 95 20m-105 10 110 25" class="thin"/><path d="M210 155q0-40 45-45l265-20q50-2 70 35l40 80q10 20 10 45v295q0 55-55 65l-325 40q-50 5-70-35l-40-80q-10-20-10-45V220q0-45 50-55Z" class="ink"/><path d="M190 175q-15 30-15 55v270q0 35 15 65l40 70m370-495q15 30 15 65v335q0 35-20 55" class="thin"/><text x="250" y="215" style="font-family:Arial,Helvetica,sans-serif;font-weight:900;font-size:72px;fill:#000;letter-spacing:2px">PASSPORT</text><circle cx="395" cy="395" r="120" class="ink"/><path d="M395 275c-55 35-55 205 0 240 55-35 55-205 0-240" class="thin"/><path d="M395 275c-30 35-30 205 0 240m0-240c30 35 30 205 0 240M280 395h230" class="thin"/><path d="M300 345c60 20 130 20 190 0M300 445c60-20 130-20 190 0M235 255q-15 10 0 20m325 25q15 10 0 20M240 585q-15 10 0 20" class="thin"/></svg>

<svg xmlns="http://www.w3.org/2000/svg" viewBox="0 0 900 700" width="900" height="700">
  <defs>
    <style>
      .ink { fill: none; stroke: #000; stroke-width: 14; stroke-linecap: round; stroke-linejoin: round; }
      .thin { fill: none; stroke: #000; stroke-width: 8; stroke-linecap: round; stroke-linejoin: round; }
      .text { font-family: Arial, Helvetica, sans-serif; font-weight: 900; font-size: 72px; fill: #000; letter-spacing: 2px; }
    </style>
  </defs>

  <!-- Back sheet (behind passport) -->
  <path class="ink" d="M560,140
                       Q585,115 615,120
                       L760,150
                       Q800,160 795,200
                       L760,560
                       Q755,605 710,595
                       L600,570
                       Q560,560 565,520
                       L600,175
                       Q602,155 560,140 Z"></path>
  <path class="thin" d="M640,160 L735,180"></path>
  <path class="thin" d="M630,190 L740,215"></path>

  <!-- Passport cover -->
  <path class="ink" d="M210,155
                       Q210,115 255,110
                       L520,90
                       Q570,88 590,125
                       L630,205
                       Q640,225 640,250
                       L640,545
                       Q640,600 585,610
                       L260,650
                       Q210,655 190,615
                       L150,535
                       Q140,515 140,490
                       L140,220
                       Q140,175 190,165
                       Z"></path>

  <!-- Inner edge / thickness -->
  <path class="thin" d="M190,175
                        Q175,205 175,230
                        L175,500
                        Q175,535 190,565
                        L230,635"></path>
  <path class="thin" d="M600,140 Q615,170 615,205 L615,540 Q615,575 595,595"></path>

  <!-- Title: PASSPORT -->
  <text x="250" y="215" class="text">PASSPORT</text>

  <!-- Globe emblem (doodle) -->
  <circle class="ink" cx="395" cy="395" r="120"></circle>

  <!-- Longitudes -->
  <path class="thin" d="M395,275
                        C340,310 340,480 395,515
                        C450,480 450,310 395,275 Z"></path>
  <path class="thin" d="M395,275
                        C365,310 365,480 395,515"></path>
  <path class="thin" d="M395,275
                        C425,310 425,480 395,515"></path>

  <!-- Latitudes -->
  <path class="thin" d="M280,395 L510,395"></path>
  <path class="thin" d="M300,345
                        C360,365 430,365 490,345"></path>
  <path class="thin" d="M300,445
                        C360,425 430,425 490,445"></path>

  <!-- Small doodle marks -->
  <path class="thin" d="M235,255 Q220,265 235,275"></path>
  <path class="thin" d="M560,300 Q575,310 560,320"></path>
  <path class="thin" d="M240,585 Q225,595 240,605"></path>
</svg>
